public/images/icon-location.svg

<svg width="128" height="128" viewBox="0 0 128 128" fill="none" xmlns="http://www.w3.org/2000/svg">
<path d="M11.4299 77.0601L7.93994 77.5801L38.7499 118.18L116.65 109.76L118.12 106.39L40.6299 113.44L11.4299 77.0601Z" fill="#231F20"/>
<path d="M67.5198 47.87C67.4603 49.4211 66.802 50.8888 65.6831 51.9647C64.5643 53.0407 63.072 53.6411 61.5198 53.64C60.416 53.5775 59.3545 53.1944 58.4653 52.5374C57.5762 51.8805 56.8981 50.9783 56.5142 49.9416C56.1302 48.9049 56.0572 47.7787 56.304 46.7011C56.5508 45.6235 57.1067 44.6413 57.9035 43.875C58.7004 43.1087 59.7035 42.5916 60.7899 42.3871C61.8764 42.1826 62.9989 42.2996 64.0198 42.7237C65.0407 43.1478 65.9157 43.8607 66.5374 44.7748C67.1591 45.689 67.5005 46.7646 67.5198 47.87Z" fill="#231F20"/>
<path d="M38.2498 39.06C37.6835 41.2013 37.4641 43.4194 37.5998 45.63C37.7553 47.8579 38.199 50.0562 38.9198 52.17C39.1686 52.953 39.4624 53.7209 39.7998 54.47C40.0998 55.23 40.4798 55.96 40.7998 56.7C43.512 61.8771 46.8797 66.6833 50.8198 71C52.5298 73 54.3398 74.85 56.1598 76.69C58.4898 79.07 60.9198 81.37 63.0498 83.96C63.7098 84.76 63.5498 84.72 62.8298 84.2C61.6176 83.3449 60.4588 82.4165 59.3598 81.42C56.8731 79.14 54.4564 76.7467 52.1098 74.24C49.7424 71.7429 47.5283 69.1047 45.4798 66.34C42.9034 62.9736 40.6973 59.3393 38.8998 55.5C36.9016 51.2081 36.067 46.4663 36.4798 41.75C36.8235 38.8645 37.7235 36.073 39.1298 33.53C40.2054 31.6277 41.4791 29.8445 42.9298 28.21C44.4051 26.6197 46.0867 25.234 47.9298 24.09C50.774 22.3372 53.8949 21.0793 57.1598 20.37C57.8798 20.19 58.5898 20.08 59.3098 19.95C60.0298 19.82 60.5598 19.79 61.0298 19.76C61.4998 19.73 61.8998 19.76 62.2098 19.76C62.6529 19.7721 63.0915 19.853 63.5098 20C63.6422 20.0358 63.7724 20.0792 63.8998 20.13C64.1598 20.3 63.0598 20.43 61.1398 20.82C55.4498 21.6 49.5198 23.68 45.0798 27.74C43.4629 29.2932 42.0696 31.0635 40.9398 33C39.7328 34.8805 38.8379 36.9438 38.2898 39.11L38.2498 39.06Z" fill="#231F20"/>
<path d="M58.4797 80.3C58.4797 80.3 51.2697 83 54.2197 84.46C57.1697 85.92 63.7597 84.93 63.7597 84.93L58.4797 80.3Z" fill="#231F20"/>
<path d="M72.46 78.55C72.65 78.25 76.24 78.28 77.66 79.04C79.08 79.8 77.8 81.04 76.77 81.64C74.3289 82.8524 71.703 83.6499 69 84L72.46 78.55Z" fill="#231F20"/>
<path d="M25.8899 71.1201C27.7799 71.0001 29.6799 70.8601 31.5699 70.6901L33.6299 70.4601C36.0699 70.2601 38.4999 70.0701 40.9399 69.8401C42.0199 69.7301 43.0999 69.5801 44.1599 69.4301L46.2199 69.1301C46.9253 69.0701 47.6345 69.0701 48.3399 69.1301C48.7899 69.1801 48.7399 69.4901 48.4099 69.8901C47.9671 70.4282 47.3864 70.8361 46.7299 71.0701C45.3499 71.3501 43.9499 71.5701 42.5499 71.7601C41.1499 71.9501 39.7199 72.0001 38.2899 72.0501C36.5799 72.0501 34.8299 72.4201 33.0999 72.6001C31.1899 72.7901 29.2699 72.9501 27.3599 73.1201L23.8299 73.4001C22.0399 73.5501 20.2499 73.6401 18.4799 73.8101C17.0999 73.9301 15.7599 74.2101 14.3799 74.3101C14.0799 74.3101 13.7899 74.3901 13.4799 74.4001C12.3399 74.4001 11.9799 74.2801 11.7299 73.7601C11.6799 73.6401 11.6099 73.5201 11.5699 73.4001C11.4699 73.0001 11.9199 72.6501 12.7299 72.4901C15.1898 72.0105 17.6785 71.6932 20.1799 71.5401L25.8799 71.0701L25.8899 71.1201Z" fill="#231F20"/>
<path d="M107.68 108C98.0666 109.067 88.45 110.067 78.83 111C75.32 111.36 71.83 111.77 68.31 112.1C62.11 112.65 55.92 113.18 49.7 113.58C48.15 113.68 46.59 113.77 45.03 113.83C44.24 113.83 43.46 113.89 42.67 113.89C42.27 113.89 41.87 113.89 41.46 113.89H41.12H40.67C40.5176 113.879 40.3668 113.852 40.22 113.81L39.91 113.48L38.3 111.58L36.81 109.79L33.81 106.18L23.42 93.35C18.98 87.89 14.52 82.42 10.42 76.67C9.15997 74.85 9.64997 74.89 11.06 76.14C13.3736 78.2318 15.5264 80.4948 17.5 82.91L31.07 99.64L37.89 108L41.18 111.93C41.18 111.93 41.24 111.93 41.28 111.93H41.77C42.19 111.93 42.63 111.93 43.07 111.93C43.96 111.93 44.85 111.93 45.75 111.86C54.35 111.46 63.31 110.39 72.11 109.53C81.79 108.563 91.4566 107.543 101.11 106.47L110.03 105.47L118.15 104.47H118.45H118.6H118.66V104.41L118.31 103.94L103.71 84.55L97.42 76.22C96.38 74.8334 95.3533 73.4267 94.34 72C93.82 71.3 93.34 70.58 92.83 69.86C92.59 69.52 92.32 69.09 92.13 68.8L91.99 68.6C91.9036 68.5902 91.8164 68.5902 91.73 68.6H91.32H90.77H89.66L87.4 68.68C81.71 68.84 79.85 68.62 78.64 68.05C78.3645 67.9429 78.0971 67.8159 77.84 67.67C77.32 67.26 79.61 66.97 83.76 66.67C85.3 66.58 86.85 66.44 88.42 66.38C89.21 66.38 90.01 66.31 90.83 66.3H91.83C92.0013 66.3064 92.1718 66.3264 92.34 66.36C92.679 66.4091 93.0135 66.4861 93.34 66.59C93.577 66.8583 93.7911 67.146 93.98 67.45L94.68 68.45L95.35 69.45L96.73 71.37L99.56 75.24C103.39 80.4 107.33 85.61 111.28 90.83L121.28 104.07L121.41 105.07L121.47 105.58L120.91 105.35V105.41V105.49L120.85 105.66L120.72 106.09C120.72 106.28 120.53 106.41 120.31 106.5C119.77 106.6 119.19 106.67 118.63 106.74L114.7 107.24L107.76 108.06L107.68 108Z" fill="#231F20"/>
<path d="M77.2197 24.7901C70.0997 19.8801 60.4297 19.3701 52.1397 22.0001C49.1193 22.9738 46.3172 24.526 43.8897 26.5701C42.8289 27.4713 41.8607 28.4763 40.9997 29.5701L39.7397 31.2601C39.3497 31.8401 39.0097 32.4501 38.6397 33.0501C37.2539 35.47 36.3792 38.1486 36.0697 40.9201C35.4597 46.4901 37.3497 52.1301 40.1797 57.1001C42.8077 61.5185 45.9239 65.6277 49.4697 69.3501C51.7097 71.7601 54.0297 74.1101 56.3697 76.4601C58.7563 78.7806 61.013 81.231 63.1297 83.8001C64.3897 85.4801 64.0597 85.3501 62.7097 84.2301C61.9997 83.6501 60.9997 82.8801 59.8397 82.0001C59.2397 81.5401 58.5797 81.0601 57.9097 80.5001C57.2397 79.9401 56.5597 79.3401 55.9097 78.6901C53.4497 76.3701 50.9097 74.0901 48.5997 71.5801C46.2285 69.0885 44.0048 66.4607 41.9397 63.7101C39.8338 60.9276 38.0208 57.935 36.5297 54.7801C34.9651 51.5545 34.0381 48.0571 33.7997 44.4801C33.7647 43.944 33.7647 43.4062 33.7997 42.8701C33.7997 42.3301 33.7997 41.7801 33.8597 41.2401C33.9565 40.1504 34.1235 39.0682 34.3597 38.0001C34.6182 36.931 34.9524 35.8817 35.3597 34.8601C35.5397 34.3501 35.7997 33.8601 36.0197 33.3701C36.2342 32.8645 36.4814 32.3735 36.7597 31.9001C37.2887 30.9477 37.8765 30.0292 38.5197 29.1501C38.8497 28.7101 39.1597 28.2701 39.5197 27.8401C39.8797 27.4101 40.2297 26.9901 40.5997 26.5901C42.1002 24.9906 43.8128 23.6044 45.6897 22.4701C49.789 20.0903 54.3733 18.6681 59.0997 18.3101C61.4502 18.1051 63.8153 18.1353 66.1597 18.4001C68.4967 18.6846 70.7923 19.2418 72.9997 20.0601C78.545 22.1027 83.1913 26.0372 86.1197 31.1701C88.2108 35.0847 89.2221 39.4853 89.0497 43.9201C88.8625 48.2732 87.9078 52.559 86.2297 56.5801C83.6797 62.8201 79.7897 68.1401 76.2297 73.5801C75.4397 74.7701 74.6897 75.9501 73.9297 77.1601C73.1697 78.3701 72.6297 79.1801 72.1597 80.0001C71.6897 80.8201 71.1597 81.3701 70.8797 81.8901C70.4144 82.6003 69.8891 83.2694 69.3097 83.8901C69.1297 84.0929 68.9395 84.2865 68.7397 84.4701C68.4997 84.6501 68.5397 84.2101 68.7997 83.2501C68.9571 82.6313 69.1542 82.0234 69.3897 81.4301C69.6789 80.5895 70.0127 79.765 70.3897 78.9601C73.1397 73.7001 76.7497 68.8301 79.8797 63.7501C81.4712 61.2437 82.8622 58.6155 84.0397 55.8901C85.1733 53.1659 85.9758 50.3155 86.4297 47.4001C87.1369 43.1221 86.7129 38.7335 85.1997 34.6701C83.5917 30.6579 80.8016 27.2296 77.1997 24.8401L77.2197 24.7901Z" fill="#231F20"/>
<path d="M58.4398 43.55C57.7625 44.1446 57.2302 44.8863 56.8835 45.7182C56.5369 46.5502 56.3851 47.4504 56.4398 48.35C56.5819 49.8911 57.3289 51.313 58.5172 52.3045C59.7055 53.2959 61.2382 53.7762 62.7798 53.64C63.8611 53.5381 64.8962 53.1517 65.7798 52.52C66.8597 51.6633 67.6973 50.5396 68.2098 49.26C68.3998 48.88 68.8698 49 69.2098 49.53C69.3959 49.864 69.4988 50.2379 69.5098 50.62C69.5057 51.1053 69.3747 51.5811 69.1298 52C68.0799 53.5344 66.5283 54.6553 64.7417 55.1699C62.9551 55.6845 61.0451 55.5608 59.3398 54.82C58.3362 54.376 57.4337 53.732 56.6874 52.9273C55.9412 52.1226 55.367 51.1742 54.9998 50.14C54.6419 48.9977 54.5622 47.7863 54.7675 46.6069C54.9727 45.4275 55.457 44.3143 56.1798 43.36C57.0288 42.1973 58.1757 41.2853 59.4998 40.72C60.499 40.2984 61.5754 40.0906 62.6598 40.11C63.7386 40.1422 64.7971 40.412 65.7598 40.9C67.2742 41.63 68.5225 42.8153 69.3298 44.29C69.5047 44.6116 69.6551 44.9459 69.7798 45.29C70.1698 46.65 69.9598 47.14 69.4898 47.41C69.3865 47.4873 69.2718 47.5481 69.1498 47.59C68.7598 47.7 68.4898 47.2 68.2498 46.45C67.9142 45.3245 67.2745 44.3135 66.4011 43.5283C65.5277 42.7431 64.4545 42.2143 63.2998 42C62.4294 41.8864 61.5447 41.9674 60.7094 42.2371C59.8742 42.5069 59.1092 42.9587 58.4698 43.56L58.4398 43.55Z" fill="#231F20"/>
<path d="M97.1602 94.19L94.8102 94.37C94.5202 94.37 94.2502 94.46 93.9602 94.48C92.9602 94.56 91.9602 94.65 90.9602 94.78C90.5189 94.8416 90.0815 94.9284 89.6502 95.04C89.111 95.1945 88.5586 95.2983 88.0002 95.35C87.8402 95.35 87.7602 95.15 87.8302 94.88C87.8731 94.72 87.951 94.5716 88.0582 94.4454C88.1654 94.3191 88.2993 94.2183 88.4502 94.15C89.5702 93.757 90.7367 93.5116 91.9202 93.42C92.6302 93.42 93.3302 93.15 94.0502 93.03C94.7702 92.91 95.6202 92.78 96.4102 92.69L97.8702 92.52C98.6102 92.43 99.3602 92.37 100.09 92.25C100.66 92.17 101.2 91.98 101.78 91.86C101.9 91.86 102.03 91.79 102.15 91.78C102.64 91.72 102.81 91.84 102.91 92.29C102.91 92.39 102.91 92.49 102.98 92.6C103.003 92.7603 102.97 92.9237 102.886 93.0623C102.802 93.2009 102.673 93.3061 102.52 93.36C101.546 93.6753 100.54 93.8799 99.5202 93.97L97.1802 94.23L97.1602 94.19Z" fill="#231F20"/>
<path d="M23.4899 79.2H24.7699C24.9299 79.2 25.0799 79.2 25.2399 79.2H26.8999C27.1399 79.2 27.3899 79.2 27.6299 79.2C27.9437 79.14 28.266 79.14 28.5799 79.2C28.7699 79.25 28.5199 79.93 28.1899 80C27.5851 80.126 26.967 80.1764 26.3499 80.15C25.967 80.1553 25.5854 80.1955 25.2099 80.27L23.9399 80.41L23.1499 80.48C22.7499 80.48 22.3499 80.55 21.9599 80.61C21.5699 80.67 21.3599 80.76 21.0499 80.83H20.8499C20.5899 80.83 20.5099 80.83 20.4399 80.51C20.4186 80.4514 20.4019 80.3912 20.3899 80.33C20.3705 80.2359 20.3825 80.138 20.4241 80.0513C20.4656 79.9646 20.5344 79.8939 20.6199 79.85C21.1266 79.6158 21.6662 79.4607 22.2199 79.39C22.6399 79.33 23.0599 79.29 23.4899 79.25V79.2Z" fill="#231F20"/>
<path d="M99.5099 98.1201H98.5099C98.3899 98.1201 98.2699 98.1801 98.1399 98.1801C97.6999 98.1801 97.2599 98.1801 96.8199 98.2401C96.6291 98.2632 96.4414 98.3068 96.2599 98.3701C96.0335 98.4812 95.7814 98.5295 95.5299 98.5101C95.3599 98.5101 95.3099 97.3701 95.5899 97.2901C96.0977 97.1528 96.6257 97.1054 97.1499 97.1501C97.4659 97.1515 97.7812 97.1179 98.0899 97.0501L99.0899 96.9601L99.7299 96.9001C100.066 96.8793 100.4 96.8359 100.73 96.7701C100.97 96.7001 101.19 96.6001 101.42 96.5101L101.57 96.4501C101.76 96.4501 101.85 96.4501 101.94 96.7301L102 97.0001C102.032 97.0851 102.038 97.1776 102.019 97.2664C101.999 97.3551 101.955 97.4363 101.89 97.5001C101.517 97.8021 101.066 97.9927 100.59 98.0501C100.25 98.1201 99.8999 98.1501 99.5899 98.1901L99.5099 98.1201Z" fill="#231F20"/>
<path d="M89.73 10.41C89.8629 10.2444 90.0274 10.1068 90.214 10.0054C90.4006 9.90397 90.6055 9.84072 90.8168 9.81931C91.0281 9.7979 91.2416 9.81877 91.4447 9.8807C91.6478 9.94263 91.8366 10.0444 92 10.18C94.83 12.94 86.29 14 89.73 10.41Z" stroke="#231F20" stroke-width="1.2" stroke-miterlimit="10"/>
<path d="M97.6501 22.68C97.9225 22.358 98.3091 22.1541 98.7287 22.1112C99.1482 22.0683 99.5681 22.1898 99.9001 22.45C102.75 25.21 94.2101 26.25 97.6501 22.68Z" fill="#231F20"/>
<path d="M23.9301 41.47C23.7269 41.2232 23.4348 41.0661 23.1169 41.0324C22.799 40.9988 22.4806 41.0912 22.2301 41.29C20.0701 43.38 26.5401 44.16 23.9301 41.47Z" fill="#231F20"/>
</svg>

<svg xmlns="http://www.w3.org/2000/svg" width="128" height="128" viewBox="0 0 128 128"><defs><style>.cls-1{fill:#231f20;}.cls-2{fill:none;stroke:#231f20;stroke-miterlimit:10;stroke-width:1.2px;}</style></defs><title>Free Icons</title><g id="Layer_45" data-name="Layer 45"><polygon class="cls-1" points="11.43 77.06 7.94 77.58 38.75 118.18 116.65 109.76 118.12 106.39 40.63 113.44 11.43 77.06"/><path class="cls-1" d="M67.52,47.87a6,6,0,0,1-6,5.77,5.68,5.68,0,1,1,6-5.77Z"/><path class="cls-1" d="M38.25,39.06a20.73,20.73,0,0,0-.65,6.57,25.84,25.84,0,0,0,1.32,6.54,21.35,21.35,0,0,0,.88,2.3c.3.76.68,1.49,1,2.23A68.07,68.07,0,0,0,50.82,71c1.71,2,3.52,3.85,5.34,5.69,2.33,2.38,4.76,4.68,6.89,7.27.66.8.5.76-.22.24a36.43,36.43,0,0,1-3.47-2.78Q55.63,78,52.11,74.24a85.26,85.26,0,0,1-6.63-7.9A59,59,0,0,1,38.9,55.5a27,27,0,0,1-2.42-13.75,22.48,22.48,0,0,1,2.65-8.22,31,31,0,0,1,3.8-5.32,24.3,24.3,0,0,1,5-4.12,29.55,29.55,0,0,1,9.23-3.72c.72-.18,1.43-.29,2.15-.42s1.25-.16,1.72-.19.87,0,1.18,0a4.27,4.27,0,0,1,1.3.24,3.54,3.54,0,0,1,.39.13c.26.17-.84.3-2.76.69-5.69.78-11.62,2.86-16.06,6.92A24.21,24.21,0,0,0,40.94,33a20.72,20.72,0,0,0-2.65,6.11Z"/><path class="cls-1" d="M58.48,80.3S51.27,83,54.22,84.46s9.54.47,9.54.47Z"/><path class="cls-1" d="M72.46,78.55c.19-.3,3.78-.27,5.2.49s.14,2-.89,2.6A24.56,24.56,0,0,1,69,84Z"/><path class="cls-1" d="M25.89,71.12c1.89-.12,3.79-.26,5.68-.43l2.06-.23c2.44-.2,4.87-.39,7.31-.62,1.08-.11,2.16-.26,3.22-.41l2.06-.3a12.51,12.51,0,0,1,2.12,0c.45.05.4.36.07.76a3.85,3.85,0,0,1-1.68,1.18c-1.38.28-2.78.5-4.18.69s-2.83.24-4.26.29c-1.71,0-3.46.37-5.19.55-1.91.19-3.83.35-5.74.52l-3.53.28c-1.79.15-3.58.24-5.35.41-1.38.12-2.72.4-4.1.5-.3,0-.59.08-.9.09-1.14,0-1.5-.12-1.75-.64-.05-.12-.12-.24-.16-.36-.1-.4.35-.75,1.16-.91a57.2,57.2,0,0,1,7.45-.95l5.7-.47Z"/><path class="cls-1" d="M107.68,108q-14.42,1.6-28.85,3c-3.51.36-7,.77-10.52,1.1-6.2.55-12.39,1.08-18.61,1.48-1.55.1-3.11.19-4.67.25-.79,0-1.57.06-2.36.06-.4,0-.8,0-1.21,0l-.34,0-.45,0a2.23,2.23,0,0,1-.45-.08l-.31-.33-1.61-1.9-1.49-1.79-3-3.61L23.42,93.35c-4.44-5.46-8.9-10.93-13-16.68-1.26-1.82-.77-1.78.64-.53a62.09,62.09,0,0,1,6.44,6.77L31.07,99.64,37.89,108l3.29,3.93s.06,0,.1,0h.49c.42,0,.86,0,1.3,0,.89,0,1.78,0,2.68-.07,8.6-.4,17.56-1.47,26.36-2.33q14.52-1.45,29-3.06l8.92-1,8.12-1,.3,0,.15,0s.06,0,.06,0l0-.06-.35-.47-14.6-19.39-6.29-8.33Q95.86,74.14,94.34,72c-.52-.7-1-1.42-1.51-2.14-.24-.34-.51-.77-.7-1.06l-.14-.2a1.15,1.15,0,0,0-.26,0l-.41,0h-.55l-1.11,0-2.26.08c-5.69.16-7.55-.06-8.76-.63a6.11,6.11,0,0,1-.8-.38c-.52-.41,1.77-.7,5.92-1,1.54-.09,3.09-.23,4.66-.29.79,0,1.59-.07,2.41-.08h1a3.2,3.2,0,0,1,.51.06,6.24,6.24,0,0,1,1,.23,6.4,6.4,0,0,1,.64.86l.7,1,.67,1,1.38,1.92,2.83,3.87c3.83,5.16,7.77,10.37,11.72,15.59l10,13.24.13,1,.06.51-.56-.23h0v.06l0,.08-.06.17-.13.43c0,.19-.19.32-.41.41-.54.1-1.12.17-1.68.24l-3.93.5-6.94.82Z"/><path class="cls-1" d="M77.22,24.79C70.1,19.88,60.43,19.37,52.14,22a24.46,24.46,0,0,0-8.25,4.57,20.89,20.89,0,0,0-2.89,3l-1.26,1.69c-.39.58-.73,1.19-1.1,1.79a20.39,20.39,0,0,0-2.57,7.87c-.61,5.57,1.28,11.21,4.11,16.18a68.61,68.61,0,0,0,9.29,12.25c2.24,2.41,4.56,4.76,6.9,7.11a90.56,90.56,0,0,1,6.76,7.34c1.26,1.68.93,1.55-.42.43C62,83.65,61,82.88,59.84,82c-.6-.46-1.26-.94-1.93-1.5s-1.35-1.16-2-1.81c-2.46-2.32-5-4.6-7.31-7.11a88.41,88.41,0,0,1-6.66-7.87,50.68,50.68,0,0,1-5.41-8.93A27.84,27.84,0,0,1,33.8,44.48a12.33,12.33,0,0,1,0-1.61c0-.54,0-1.09.06-1.63A25.42,25.42,0,0,1,34.36,38a23.19,23.19,0,0,1,1-3.14c.18-.51.44-1,.66-1.49a12.63,12.63,0,0,1,.74-1.47,26.2,26.2,0,0,1,1.76-2.75c.33-.44.64-.88,1-1.31s.71-.85,1.08-1.25a24,24,0,0,1,5.09-4.12A31.44,31.44,0,0,1,59.1,18.31a35.46,35.46,0,0,1,7.06.09A30.17,30.17,0,0,1,73,20.06,25.09,25.09,0,0,1,86.12,31.17a25,25,0,0,1,2.93,12.75,37,37,0,0,1-2.82,12.66c-2.55,6.24-6.44,11.56-10,17-.79,1.19-1.54,2.37-2.3,3.58S72.63,79.18,72.16,80s-1,1.37-1.28,1.89a14.89,14.89,0,0,1-1.57,2,8,8,0,0,1-.57.58c-.24.18-.2-.26.06-1.22a14.86,14.86,0,0,1,.59-1.82,25,25,0,0,1,1-2.47c2.75-5.26,6.36-10.13,9.49-15.21a56.37,56.37,0,0,0,4.16-7.86,36.86,36.86,0,0,0,2.39-8.49A24.86,24.86,0,0,0,85.2,34.67a21.31,21.31,0,0,0-8-9.83Z"/><path class="cls-1" d="M58.44,43.55a5.91,5.91,0,0,0-2,4.8,5.85,5.85,0,0,0,6.34,5.29,6.15,6.15,0,0,0,3-1.12,7.92,7.92,0,0,0,2.43-3.26c.19-.38.66-.26,1,.27a2.38,2.38,0,0,1,.3,1.09A2.78,2.78,0,0,1,69.13,52a8,8,0,0,1-9.79,2.82A8.07,8.07,0,0,1,55,50.14a7.51,7.51,0,0,1,1.18-6.78,8,8,0,0,1,3.32-2.64,7.77,7.77,0,0,1,3.16-.61,7.34,7.34,0,0,1,3.1.79,8.06,8.06,0,0,1,3.57,3.39,7.29,7.29,0,0,1,.45,1c.39,1.36.18,1.85-.29,2.12a1.24,1.24,0,0,1-.34.18c-.39.11-.66-.39-.9-1.14A6.38,6.38,0,0,0,63.3,42a5.93,5.93,0,0,0-4.83,1.56Z"/><path class="cls-1" d="M97.16,94.19l-2.35.18c-.29,0-.56.09-.85.11-1,.08-2,.17-3,.3a11.67,11.67,0,0,0-1.31.26,9,9,0,0,1-1.65.31c-.16,0-.24-.2-.17-.47a1.12,1.12,0,0,1,.62-.73,13.67,13.67,0,0,1,3.47-.73c.71,0,1.41-.27,2.13-.39s1.57-.25,2.36-.34l1.46-.17c.74-.09,1.49-.15,2.22-.27.57-.08,1.11-.27,1.69-.39.12,0,.25-.07.37-.08.49-.06.66.06.76.51,0,.1,0,.2.07.31a.7.7,0,0,1-.46.76,13.64,13.64,0,0,1-3,.61l-2.34.26Z"/><path class="cls-1" d="M23.49,79.2l1.28,0c.16,0,.31,0,.47,0l1.66,0c.24,0,.49,0,.73,0a2.53,2.53,0,0,1,.95,0c.19.05-.06.73-.39.8a7.46,7.46,0,0,1-1.84.15,6.3,6.3,0,0,0-1.14.12l-1.27.14-.79.07c-.4,0-.8.07-1.19.13s-.6.15-.91.22l-.2,0c-.26,0-.34,0-.41-.32a1.21,1.21,0,0,1-.05-.18.44.44,0,0,1,.23-.48,5.46,5.46,0,0,1,1.6-.46c.42-.06.84-.1,1.27-.14Z"/><path class="cls-1" d="M99.51,98.12l-1,0c-.12,0-.24.06-.37.06-.44,0-.88,0-1.32.06a2.68,2.68,0,0,0-.56.13,1.41,1.41,0,0,1-.73.14c-.17,0-.22-1.14.06-1.22a4.51,4.51,0,0,1,1.56-.14,4.29,4.29,0,0,0,.94-.1l1-.09.64-.06a7.48,7.48,0,0,0,1-.13c.24-.07.46-.17.69-.26l.15-.06c.19,0,.28,0,.37.28L102,97a.47.47,0,0,1-.11.5,2.55,2.55,0,0,1-1.3.55c-.34.07-.69.1-1,.14Z"/><path class="cls-2" d="M89.73,10.41A1.6,1.6,0,0,1,92,10.18C94.83,12.94,86.29,14,89.73,10.41Z"/><path class="cls-1" d="M97.65,22.68a1.63,1.63,0,0,1,2.25-.23C102.75,25.21,94.21,26.25,97.65,22.68Z"/><path class="cls-1" d="M23.93,41.47a1.22,1.22,0,0,0-1.7-.18C20.07,43.38,26.54,44.16,23.93,41.47Z"/></g></svg>
